X: 37391
T: Sleepless In Syros
R: reel
M: 4/4
K: Dmajor
|:dcde fA A2|dcde fA A2|g3f e3d|cAeA egfe|
dcde fA A2|dAeA fA A2|g3f e3d|cdec d3A:|
|:g3f eAce|dfaf gfeg|b3a g3f|eAfA egfe|
dcde fA A2|dAeA fA A2|g3f e3d|cdec d3A:|

